public/img/brands/microsoft.svg

<?xml version="1.0" encoding="UTF-8"?>
<svg viewBox="0 0 150 31" xmlns="http://www.w3.org/2000/svg">
<path d="m150 14.514v-2.647h-3.295v-4.117l-0.11 0.034-3.095 0.945-0.061 0.019v3.118h-4.884v-1.736c0-0.81 0.181-1.428 0.538-1.841 0.355-0.408 0.863-0.615 1.51-0.615 0.465 0 0.947 0.11 1.431 0.325l0.122 0.054v-2.788l-0.057-0.021c-0.452-0.162-1.068-0.244-1.83-0.244-0.96 0-1.834 0.209-2.596 0.622-0.75 0.40263-1.368 1.0126-1.78 1.757-0.419 0.751-0.631 1.618-0.631 2.578v1.91h-2.294v2.647h2.294v11.153h3.293v-11.153h4.884v7.088c0 2.919 1.38 4.398 4.1 4.398 0.471-0.0029 0.94-0.0549 1.4-0.155 0.488-0.105 0.822-0.21 1.018-0.322l0.043-0.026v-2.672l-0.134 0.089c-0.204 0.1301-0.428 0.2273-0.662 0.288-0.211 0.065-0.429 0.102-0.65 0.11-0.638 0-1.11-0.171-1.402-0.51-0.296-0.34-0.446-0.938-0.446-1.773v-6.515h3.294zm-24.387 8.799c-1.195 0-2.137-0.396-2.801-1.175-0.669-0.783-1.007-1.9-1.007-3.317 0-1.464 0.338-2.61 1.007-3.406 0.664-0.791 1.598-1.193 2.775-1.193 1.142 0 2.05 0.383 2.702 1.14 0.654 0.762 0.986 1.898 0.986 3.379 0 1.498-0.312 2.65-0.928 3.42-0.612 0.764-1.531 1.152-2.734 1.152zm0.147-11.779c-2.28 0-4.092 0.667-5.383 1.982s-1.945 3.136-1.945 5.41c0 2.161 0.638 3.9 1.898 5.165 1.26 1.267 2.975 1.908 5.096 1.908 2.21 0 3.986-0.676 5.277-2.009 1.29-1.332 1.945-3.135 1.945-5.356 0-2.195-0.614-3.946-1.825-5.204s-2.915-1.896-5.063-1.896zm-12.638 0c-1.551 0-2.834 0.396-3.815 1.177-0.986 0.785-1.486 1.815-1.486 3.062 0 0.647 0.108 1.223 0.32 1.711 0.214 0.49 0.545 0.921 0.985 1.283 0.436 0.359 1.11 0.735 2.001 1.117 0.75 0.308 1.31 0.569 1.665 0.774 0.347 0.201 0.594 0.404 0.733 0.6 0.135 0.193 0.204 0.457 0.204 0.783 0 0.927-0.696 1.378-2.128 1.378-0.53 0-1.136-0.11-1.8-0.329-0.659-0.2145-1.281-0.5288-1.844-0.932l-0.136-0.098v3.164l0.05 0.023c0.466 0.215 1.053 0.396 1.746 0.538 0.613 0.1335 1.237 0.2055 1.864 0.215 1.684 0 3.04-0.398 4.028-1.183 0.996-0.79 1.5-1.845 1.5-3.135 0-0.93-0.271-1.728-0.807-2.37-0.531-0.639-1.454-1.225-2.74-1.743-1.026-0.41-1.683-0.751-1.954-1.013-0.261-0.253-0.394-0.61-0.394-1.063 0-0.401 0.164-0.723 0.5-0.983 0.339-0.262 0.81-0.395 1.401-0.395 0.55 0 1.11 0.087 1.669 0.256 0.517 0.1508 1.008 0.378 1.457 0.674l0.134 0.092v-3.001l-0.051-0.022c-0.378-0.162-0.875-0.3-1.48-0.412-0.535-0.1047-1.077-0.1609-1.622-0.168zm-13.886 11.779c-1.195 0-2.138-0.396-2.802-1.175-0.668-0.783-1.006-1.899-1.006-3.317 0-1.464 0.338-2.61 1.007-3.406 0.664-0.791 1.597-1.193 2.774-1.193 1.142 0 2.05 0.383 2.702 1.14 0.655 0.762 0.987 1.898 0.987 3.379 0 1.498-0.313 2.65-0.929 3.42-0.611 0.764-1.53 1.152-2.733 1.152zm0.147-11.779c-2.281 0-4.093 0.667-5.384 1.982-1.29 1.315-1.945 3.136-1.945 5.41 0 2.162 0.64 3.9 1.9 5.165 1.259 1.267 2.973 1.909 5.094 1.909 2.21 0 3.986-0.676 5.277-2.009 1.29-1.332 1.945-3.135 1.945-5.356 0-2.195-0.614-3.946-1.825-5.204-1.212-1.258-2.916-1.896-5.063-1.896l1e-3 -1e-3zm-12.328 2.723v-2.39h-3.253v13.8h3.253v-7.06c0-1.2 0.273-2.186 0.811-2.93 0.531-0.737 1.24-1.11 2.104-1.11 0.293 0 0.622 0.049 0.978 0.144 0.353 0.095 0.608 0.198 0.759 0.306l0.136 0.099v-3.273l-0.052-0.022c-0.303-0.129-0.732-0.194-1.274-0.194-0.818 0-1.55 0.263-2.176 0.779-0.55 0.453-0.947 1.075-1.251 1.85h-0.035v1e-3zm-9.079-2.723c-1.492 0-2.823 0.32-3.955 0.95-1.1169 0.6124-2.0257 1.5441-2.61 2.676-0.594 1.143-0.896 2.478-0.896 3.966 0 1.304 0.293 2.5 0.871 3.555 0.5584 1.036 1.4039 1.8887 2.435 2.456 1.035 0.573 2.231 0.863 3.556 0.863 1.546 0 2.866-0.309 3.924-0.917l0.043-0.024v-2.974l-0.137 0.1c-0.4869 0.3519-1.023 0.6303-1.591 0.826-0.575 0.2-1.1 0.302-1.56 0.302-1.276 0-2.3-0.399-3.044-1.185-0.746-0.786-1.123-1.891-1.123-3.281 0-1.4 0.394-2.533 1.17-3.369 0.775-0.833 1.802-1.256 3.052-1.256 1.069 0 2.11 0.361 3.096 1.075l0.137 0.098v-3.133l-0.044-0.025c-0.371-0.207-0.877-0.378-1.505-0.508-0.5981-0.1266-1.2076-0.1919-1.819-0.195zm-9.701 0.333h-3.253v13.8h3.253v-13.8zm-1.593-5.879c-0.536 0-1.003 0.182-1.386 0.542-0.1875 0.17142-0.3364 0.38085-0.4365 0.61433-0.1002 0.23349-0.1495 0.48565-0.1445 0.73967 0 0.529 0.193 0.975 0.575 1.327 0.379 0.351 0.847 0.529 1.392 0.529 0.5165 0.01021 1.0172-0.17887 1.398-0.528 0.1873-0.16607 0.3364-0.37081 0.4368-0.60009 0.1005-0.22927 0.15-0.47763 0.1452-0.72791 0-0.518-0.19-0.969-0.566-1.339-0.375-0.37-0.851-0.557-1.414-0.557zm-8.117 4.86v14.819h3.32v-19.257h-4.595l-5.84 14.302-5.668-14.302h-4.782v19.256h3.12v-14.82h0.107l5.985 14.82h2.354l5.892-14.818h0.107z"/>
<path d="M15 14H0V0H15V14ZM32 14H17V0H32V14ZM15 31H0V17H15V31ZM32 31H17V17H32V31Z" clip-rule="evenodd" fill-rule="evenodd"/>
</svg>

<svg width="150" height="31" viewBox="0 0 150 31" fill="none" xmlns="http://www.w3.org/2000/svg">
<path d="M150 14.514V11.867H146.705V7.75L146.595 7.784L143.5 8.729L143.439 8.748V11.866H138.555V10.13C138.555 9.32 138.736 8.702 139.093 8.289C139.448 7.881 139.956 7.674 140.603 7.674C141.068 7.674 141.55 7.784 142.034 7.999L142.156 8.053V5.265L142.099 5.244C141.647 5.082 141.031 5 140.269 5C139.309 5 138.435 5.209 137.673 5.622C136.923 6.02463 136.305 6.63459 135.893 7.379C135.474 8.13 135.262 8.997 135.262 9.957V11.867H132.968V14.514H135.262V25.667H138.555V14.514H143.439V21.602C143.439 24.521 144.819 26 147.539 26C148.01 25.9971 148.479 25.9451 148.939 25.845C149.427 25.74 149.761 25.635 149.957 25.523L150 25.497V22.825L149.866 22.914C149.662 23.0441 149.438 23.1413 149.204 23.202C148.993 23.267 148.775 23.304 148.554 23.312C147.916 23.312 147.444 23.141 147.152 22.802C146.856 22.462 146.706 21.864 146.706 21.029V14.514H150V14.514ZM125.613 23.313C124.418 23.313 123.476 22.917 122.812 22.138C122.143 21.355 121.805 20.238 121.805 18.821C121.805 17.357 122.143 16.211 122.812 15.415C123.476 14.624 124.41 14.222 125.587 14.222C126.729 14.222 127.637 14.605 128.289 15.362C128.943 16.124 129.275 17.26 129.275 18.741C129.275 20.239 128.963 21.391 128.347 22.161C127.735 22.925 126.816 23.313 125.613 23.313V23.313ZM125.76 11.534C123.48 11.534 121.668 12.201 120.377 13.516C119.086 14.831 118.432 16.652 118.432 18.926C118.432 21.087 119.07 22.826 120.33 24.091C121.59 25.358 123.305 25.999 125.426 25.999C127.636 25.999 129.412 25.323 130.703 23.99C131.993 22.658 132.648 20.855 132.648 18.634C132.648 16.439 132.034 14.688 130.823 13.43C129.612 12.172 127.908 11.534 125.76 11.534ZM113.122 11.534C111.571 11.534 110.288 11.93 109.307 12.711C108.321 13.496 107.821 14.526 107.821 15.773C107.821 16.42 107.929 16.996 108.141 17.484C108.355 17.974 108.686 18.405 109.126 18.767C109.562 19.126 110.236 19.502 111.127 19.884C111.877 20.192 112.437 20.453 112.792 20.658C113.139 20.859 113.386 21.062 113.525 21.258C113.66 21.451 113.729 21.715 113.729 22.041C113.729 22.968 113.033 23.419 111.601 23.419C111.071 23.419 110.465 23.309 109.801 23.09C109.142 22.8755 108.52 22.5612 107.957 22.158L107.821 22.06V25.224L107.871 25.247C108.337 25.462 108.924 25.643 109.617 25.785C110.23 25.9185 110.854 25.9905 111.481 26C113.165 26 114.521 25.602 115.509 24.817C116.505 24.027 117.009 22.972 117.009 21.682C117.009 20.752 116.738 19.954 116.202 19.312C115.671 18.673 114.748 18.087 113.462 17.569C112.436 17.159 111.779 16.818 111.508 16.556C111.247 16.303 111.114 15.946 111.114 15.493C111.114 15.092 111.278 14.77 111.614 14.51C111.953 14.248 112.424 14.115 113.015 14.115C113.565 14.115 114.125 14.202 114.684 14.371C115.201 14.5218 115.692 14.749 116.141 15.045L116.275 15.137V12.136L116.224 12.114C115.846 11.952 115.349 11.814 114.744 11.702C114.209 11.5973 113.667 11.5411 113.122 11.534V11.534ZM99.236 23.313C98.041 23.313 97.098 22.917 96.434 22.138C95.766 21.355 95.428 20.239 95.428 18.821C95.428 17.357 95.766 16.211 96.435 15.415C97.099 14.624 98.032 14.222 99.209 14.222C100.351 14.222 101.259 14.605 101.911 15.362C102.566 16.124 102.898 17.26 102.898 18.741C102.898 20.239 102.585 21.391 101.969 22.161C101.358 22.925 100.439 23.313 99.236 23.313V23.313ZM99.383 11.534C97.102 11.534 95.29 12.201 93.999 13.516C92.709 14.831 92.054 16.652 92.054 18.926C92.054 21.088 92.694 22.826 93.954 24.091C95.213 25.358 96.927 26 99.048 26C101.258 26 103.034 25.324 104.325 23.991C105.615 22.659 106.27 20.856 106.27 18.635C106.27 16.44 105.656 14.689 104.445 13.431C103.233 12.173 101.529 11.535 99.382 11.535L99.383 11.534ZM87.055 14.257V11.867H83.802V25.667H87.055V18.607C87.055 17.407 87.328 16.421 87.866 15.677C88.397 14.94 89.106 14.567 89.97 14.567C90.263 14.567 90.592 14.616 90.948 14.711C91.301 14.806 91.556 14.909 91.707 15.017L91.843 15.116V11.843L91.791 11.821C91.488 11.692 91.059 11.627 90.517 11.627C89.699 11.627 88.967 11.89 88.341 12.406C87.791 12.859 87.394 13.481 87.09 14.256H87.055V14.257ZM77.976 11.534C76.484 11.534 75.153 11.854 74.021 12.484C72.9041 13.0964 71.9953 14.0281 71.411 15.16C70.817 16.303 70.515 17.638 70.515 19.126C70.515 20.43 70.808 21.626 71.386 22.681C71.9444 23.717 72.7899 24.5697 73.821 25.137C74.856 25.71 76.052 26 77.377 26C78.923 26 80.243 25.691 81.301 25.083L81.344 25.059V22.085L81.207 22.185C80.7201 22.5369 80.184 22.8153 79.616 23.011C79.041 23.211 78.516 23.313 78.056 23.313C76.78 23.313 75.756 22.914 75.012 22.128C74.266 21.342 73.889 20.237 73.889 18.847C73.889 17.447 74.283 16.314 75.059 15.478C75.834 14.645 76.861 14.222 78.111 14.222C79.18 14.222 80.221 14.583 81.207 15.297L81.344 15.395V12.262L81.3 12.237C80.929 12.03 80.423 11.859 79.795 11.729C79.1969 11.6024 78.5874 11.5371 77.976 11.534V11.534ZM68.275 11.867H65.022V25.667H68.275V11.867V11.867ZM66.682 5.988C66.146 5.988 65.679 6.17 65.296 6.53C65.1085 6.70142 64.9596 6.91085 64.8595 7.14433C64.7593 7.37782 64.71 7.62998 64.715 7.884C64.715 8.413 64.908 8.859 65.29 9.211C65.669 9.562 66.137 9.74 66.682 9.74C67.1985 9.75021 67.6992 9.56113 68.08 9.212C68.2673 9.04593 68.4164 8.84119 68.5168 8.61191C68.6173 8.38264 68.6668 8.13428 68.662 7.884C68.662 7.366 68.472 6.915 68.096 6.545C67.721 6.175 67.245 5.988 66.682 5.988V5.988ZM58.565 10.848V25.667H61.885V6.41H57.29L51.45 20.712L45.782 6.41H41V25.666H44.12V10.846H44.227L50.212 25.666H52.566L58.458 10.848H58.565V10.848Z" fill="black"/>
<path fill-rule="evenodd" clip-rule="evenodd" d="M15 14H0V0H15V14ZM32 14H17V0H32V14ZM15 31H0V17H15V31ZM32 31H17V17H32V31Z" fill="black"/>
</svg>
